cssgg/unblock.svg

<svg
  width="24"
  height="24"
  viewBox="0 0 24 24"
  fill="none"
  xmlns="http://www.w3.org/2000/svg"
>
  <path
    fill-rule="evenodd"
    clip-rule="evenodd"
    d="M5.63604 18.364C9.15076 21.8787 14.8492 21.8787 18.364 18.364C21.8787 14.8492 21.8787 9.15076 18.364 5.63604C14.8492 2.12132 9.15076 2.12132 5.63604 5.63604C2.12132 9.15076 2.12132 14.8492 5.63604 18.364ZM7.80749 17.6067C10.5493 19.6623 14.4562 19.4433 16.9497 16.9497C19.4433 14.4562 19.6623 10.5493 17.6067 7.80749L14.8284 10.5858C14.4379 10.9763 13.8047 10.9763 13.4142 10.5858C13.0237 10.1953 13.0237 9.5621 13.4142 9.17157L16.1925 6.39327C13.4507 4.33767 9.54384 4.55666 7.05025 7.05025C4.55666 9.54384 4.33767 13.4507 6.39327 16.1925L9.17157 13.4142C9.5621 13.0237 10.1953 13.0237 10.5858 13.4142C10.9763 13.8047 10.9763 14.4379 10.5858 14.8284L7.80749 17.6067Z"
    fill="currentColor"
  />
</svg>

<svg viewBox="0 0 24 24" xmlns="http://www.w3.org/2000/svg"><path fill-rule="evenodd" d="M5.63 18.364c3.51 3.51 9.21 3.51 12.72 0 3.51-3.52 3.51-9.22 0-12.73 -3.52-3.52-9.22-3.52-12.73 0 -3.52 3.51-3.52 9.21 0 12.72Zm2.17-.76c2.74 2.05 6.64 1.83 9.14-.66 2.49-2.5 2.71-6.41.65-9.15l-2.78 2.77c-.4.39-1.03.39-1.42 0 -.4-.4-.4-1.03 0-1.42l2.77-2.78c-2.75-2.06-6.65-1.84-9.15.65s-2.72 6.4-.66 9.14l2.77-2.78c.39-.4 1.02-.4 1.41 0 .39.39.39 1.02 0 1.41l-2.78 2.77Z"/></svg>
